!!!!SEGMENT: d-b--slg-bohn-ms-mus-111--001-004_jarzebski-adam--canzoni-e-concerti-4-concerto-quarto.krn
!!!cenid: 16xx:1777
!!!COM: Jarzębski, Adam
!!!COM-rismID: pe30017782
!!!CDT: 1590-1648
!!!CNT: Polish
!!!GTL: Canzoni e Concerti
!!!OTL: 4. Concerto Quarto
!!!OMV: 004
!!!PDT: 1627
!!!AGN:
!!!YEC: Copyright 2022 Narodowy Instytut Fryderyka Chopina (https://polishscores.org)
!!!YEM: License CC-BY-4.0 (https://creativecommons.org/licenses/by/4.0)
!!!SMS-siglum: D-B
!!!SMS-shelfmark: Slg Bohn Ms.mus. 111
!!!SMS-shelfwork: 001-004 G
!!!SMS-variant:
!!!SMS-altvar:
!!!NIFC-rismSourceID: 1001062014
!!!NIFC-rismChildID: 1001062014
!!!NIFC-islandoraID: none
!!!URL-pdf-islandora:
!!!URL-scan: https://digital.staatsbibliothek-berlin.de/werkansicht/?PPN=PPN1049147219 @EN{Scan on Staatsbibliothek zu Berlin Website} @PL{Skany w portalu Staatsbibliothek zu Berlin}
!!!IIIF:
!!!ONB-nifc: UWAGA: Prima vox: s. 7-8, Seconda vox: s. 67, Basso continuo: s. 166-167. Uwaga: proszę wpisywać partie tylko występujące w danym koncercie i nazywać partie wg określeń podawanych przy danym utworze. Kody instr. dla humdrumowców podane zostaną na forum.
!!!AIN: 1 fagot 1 tromb
!!!key: G:mix
**kern	**fba	**kern	**kern
*part3	*	*part2	*part1
*staff3	*	*staff2	*staff1
*I"Baſso.	*	*I"Fagotto ä Trombone	*I"Fagotto ò Trombone.
*mI"Basso continuo	*	*mI"Trombone	*mI"Fagotto
*I'bc	*	*I'trb	*I'fag
*	*	*Itromb	*Ifagot
*ICklav	*	*ICbras	*ICww
*IGcont	*	*	*
*clefF4	*	*clefF4	*clefF4
*k[b-]	*	*k[b-]	*k[b-]
*G:mix	*	*G:mix	*G:mix
*M2/2	*	*M2/2	*M2/2
*met(C|)	*	*met(C|)	*met(C|)
*mmet(c|)	*	*mmet(c|)	*mmet(c|)
=1-	=1-	=1-	=1-
!!LO:TX:t=P:problem=4,8,16,32\right or middle
1G	.	0r	1G
=2-	=2-	=2-	=2-
!LO:TX:t=P:problem=kreska pseudotaktowa	!	!	!
1D	.	.	2.D/
.	.	.	4E\
=3-	=3-	=3-	=3-
2D/	.	2r	4F#X\
.	.	.	4D/
2GG/	.	2GG/	2B-\
=4-	=4-	=4-	=4-
!LO:TX:t=P:problem=kreska pseudotaktowa	!	!	!
1D	.	2.D/	1A
.	.	4E\	.
=5-	=5-	=5-	=5-
2D/	.	4F#X\	2r
.	.	4D/	.
2GG/	.	2B-\	1G
=6-	=6-	=6-	=6-
!LO:TX:t=P:problem=kreska pseudotaktowa	!	!	!
1D	.	1A	.
.	.	.	2F#X\
=7-	=7-	=7-	=7-
2GG/	.	2r	2G\
2GG/	.	1G	2GG/
=8-	=8-	=8-	=8-
!LO:TX:t=P:problem=kreska pseudotaktowa	!	!	!
1D	.	.	1D
.	.	2F#X\	.
=9-	=9-	=9-	=9-
2GG/	.	2G\	2GG/
!	!	!	!LO:TX:t=P:problem=kreska pseudotaktowa
2GG/	.	2GG/	2B-X\
=10-	=10-	=10-	=10-
!LO:TX:t=P:problem=kreska pseudotaktowa	!	!	!
1D	.	4D/	4A\
!	!	!	!LO:TX:a:t=P:problem=# above
.	.	8D/L	8F#X\L
!	!	!	!LO:SIC:s=8GJ
.	.	8E/J	8G\
!	!	!	!LO:SIC:s=8AL
.	.	8F#X\L	8A\
.	.	8G\	8B-\
.	.	8A\	8c\
!	!	!LO:TX:a:t=P:problem=# above	!LO:TX:t=P:problem=kreska pseudotaktowa
.	.	8F#X\J	8A\J
=11-	=11-	=11-	=11-
!	!	!	!LO:N:acc=#
1GG	#	2G\	2Bn\
.	.	2r	2r
*	*	*	*clefC3
!	!	!	!LO:LB:g=original
=12-	=12-	=12-	=12-
*2\right	*	*	*
2G\	.	2GG/	2g\
4G\	.	4GG/	4g\
!LO:TX:t=P:problem=kreska pseudotaktowa	!	!	!
4G\	.	4GG/	4g\
*custos:G	*	*	*
!LO:LB:g=original	!	!	!
=13-	=13-	=13-	=13-
*2\left	*	*	*
2.G\	.	2.GG/	2.g\
4D/	.	4D/	4f\
*	*	*custos:C	*
!	!	!LO:LB:g=original	!
=14-	=14-	=14-	=14-
4C/	-	4C/	4e-X\
4BB-/	.	4BB-/	4d\
!LO:TX:t=P:problem=kreska pseudotaktowa	!	!	!
2F\	.	2Fny\	2c/
=15-	=15-	=15-	=15-
1BB-	.	4.BB-/	8B-y/L
.	.	.	8c/
.	.	.	8d/
.	.	8C/	8eny/J
.	.	8D/L	4f\
.	.	8BB-/	.
!	!	!	!LO:TX:t=P:problem=kreska pseudotaktowa, między nutą a kropką
!	!	!	!LO:MO:mod=[4F
.	.	8D/	4.Fny/
.	.	8E/J	.
=16-	=16-	=16-	=16-
!	!	!	!LO:MO:null:mod=8FL]
2FF/	.	4F\	.
!	!	!	!LO:SIC:s=8G
.	.	.	8G/L
.	.	8FF/L	8A/
!	!	!LO:SIC:s=8GGJ	!
.	.	8GG/	8B-/J
!	!	!LO:SIC:s=8AAL	!
4AA/	.	8AA/	8c\L
.	.	8BB-/	8d\
2C/	.	8C/	8e\
!	!	!LO:TX:t=P:problem=kreska pseudotaktowa	!LO:TX:t=P:problem=kreska pseudotaktowa
.	.	8D/J	8f\J
=17-	=17-	=17-	=17-
.	.	8E\L	4g\
.	.	8C\	.
!	!	!	!LO:MO:mod=[4G
4C/	.	8E\	4.G/
.	.	8F\J	.
!LO:TX:t=P:problem=kreska pseudotaktowa	!	!	!LO:MO:null:mod=8GL]
2GGny/	.	4Gny\	.
!	!	!	!LO:SIC:s=8A
.	.	.	8A/L
!	!	!LO:TX:t=P:problem=kreska pseudotaktowa, między nutą a kropką	!
!	!	!LO:MO:mod=[4GG	!
.	.	4.GG/	8B-/
.	.	.	8c/J
=18-	=18-	=18-	=18-
!	!	!LO:MO:null:mod=8GGL]	!
2GG/	.	.	4d\
!	!	!LO:SIC:s=8AA	!
.	.	8AA/L	.
!	!	!	!LO:MO:mod=[4D
.	.	8BB-/	4.D/
.	.	8GG/J	.
!	!	!	!LO:MO:null:mod=8DL]
4BB-/	.	8BB-/L	.
!	!	!	!LO:SIC:s=8E
.	.	8C/	8E/L
4D/	.	8D/	8F/
!	!	!LO:TX:t=P:problem=kreska pseudotaktowa	!LO:TX:t=P:problem=kreska pseudotaktowa
.	.	8E/J	8G/J
=19-	=19-	=19-	=19-
4F\	.	8F\L	8A/L
.	.	8G\	8B-/
2A\	.	8A\	8c/
!	!	!LO:TX:a:t=P:problem=# above	!
!	!	!LO:N:acc=#	!
.	.	8Bn\J	8d/J
!	!	!LO:TX:a:t=P:problem=# above	!
.	.	4c#X\	4e\
!	!	!LO:TX:t=P:problem=kreska pseudotaktowa	!LO:TX:t=P:problem=kreska pseudotaktowa
4D/	.	4d\	4f\
*	*	*	*custos:c
!	!	!	!LO:LB:g=original
=20-	=20-	=20-	=20-
4A\	.	4A\	4c#X/
4B-\	.	4B-y\	2d\
4G\	.	4G\	.
4A\	.	4A\	4c#X/
=21-	=21-	=21-	=21-
0D	.	0D	1d
=22-	=22-	=22-	=22-
.	.	.	4r
.	.	.	4d\
.	.	.	4d\
.	.	.	4d\
*	*	*clefC4	*
=23-	=23-	=23-	=23-
2G\	.	4r	4B-/
.	.	4G/	4G/
4G\	.	4G/	4d\
4G\	.	4G/	4e\
*custos:F	*	*custos:F	*
!LO:LB:g=original	!	!LO:LB:g=original	!
=24-	=24-	=24-	=24-
4F\	.	4F/	2f\
4D/	.	4D/	.
!	!	!	!LO:TX:t=P:problem=kreska pseudotaktowa
4A\	.	4A/	[2e\
!LO:TX:t=P:problem=kreska pseudotaktowa	!	!	!
!LO:N:acc=#	!	!LO:N:acc=#	!
4Bn\	.	4Bn\	.
=25-	=25-	=25-	=25-
2.c\	.	8cny\L	8e\L]
.	.	8d\	8f\
.	.	8e\	8g\
.	.	8d\J	8f\J
.	.	4c\	4e\
8B-y\L	.	8B-y\L	8d\L
!	!	!	!LO:TX:t=P:problem=kreska pseudotaktowa
8A\J	.	8A\J	8cny\J
*	*	*clefF4	*
=26-	=26-	=26-	=26-
!	!	!	!LO:N:acc=#
2.G\	#	8G\L	8Bn/L
.	.	8A\	8c/
.	.	8B\	8d/
.	.	8A\J	8c/J
!	!	!	!LO:TX:a:t=P:problem=# above
!	!	!	!LO:N:acc=#
.	.	4G\	4Bn/
8F\L	.	8F\L	8A/L
!LO:TX:a:t=P:problem=♭ above	!	!	!
!LO:TX:t=P:problem=kreska pseudotaktowa	!	!LO:TX:a:t=P:problem=♭ above	!LO:TX:t=P:problem=kreska pseudotaktowa
8E-X\J	.	8E-X\J	8G/J
=27-	=27-	=27-	=27-
4D/	.	4D/	4F#X/
4E-X\	.	4E-X\	2G/
4C/	.	4C/	.
!	!	!	!LO:TX:a:t=P:problem=# above
4D/	.	4D/	4F#X/
=28-	=28-	=28-	=28-
0GG	.	2.GG/	4G/
.	.	.	4d\
.	.	.	4B-y/
.	.	4r	4G/
*	*	*	*custos:d
!	!	!	!LO:LB:g=original
=29-	=29-	=29-	=29-
.	.	4D/	1d
.	.	4BB-/	.
.	.	4GG/	.
.	.	2.G\	.
=30-	=30-	=30-	=30-
!LO:TX:t=P:problem=kreska pseudotaktowa	!	!	!
1GG	.	.	4r
.	.	.	4d\
.	.	8r	4B-/
.	.	8D/L	.
.	.	8BB-/	4G/
.	.	8GG/J	.
=31-	=31-	=31-	=31-
2D/	.	2G\	2d\
*	*	*	*clefC4
2GG/	.	8r	8r
.	.	8D/L	8d\L
.	.	8D/	8B-\
.	.	8C/J	8G\J
=32-	=32-	=32-	=32-
2D/	.	8BB-/L	2d\
.	.	16C/L	.
.	.	16BB-/JJ	.
.	.	8.AA/L	.
.	.	16GG/Jk	.
!LO:TX:t=P:problem=kreska pseudotaktowa	!	!	!LO:TX:t=P:problem=kreska pseudotaktowa
2GG/	.	2D/	2r
=33-	=33-	=33-	=33-
2D/	.	2r	8r
.	.	.	8d\L
.	.	.	8d\
.	.	.	8c\J
*	*	*clefC4	*
2GG/	.	8r	8B-\L
.	.	8d\L	16c\L
.	.	.	16B-\JJ
.	.	8d\	8.A/L
.	.	8c\J	.
!	!	!	!LO:TX:t=P:problem=kreska pseudotaktowa
.	.	.	16G/Jk
*	*	*custos:B	*
!	!	!LO:LB:g=original	!
=34-	=34-	=34-	=34-
!LO:TX:t=P:problem=kreska pseudotaktowa	!	!	!
0.BB-	.	8B-y\L	2D/
.	.	16c\L	.
.	.	16B-\JJ	.
.	.	8.A/L	.
.	.	16G/Jk	.
.	.	2d\	2r
=35-	=35-	=35-	=35-
.	.	2r	4r
.	.	.	4f\
*	*	*clefF4	*
.	.	4r	4d\
!	!	!	!LO:TX:t=P:problem=kreska pseudotaktowa
.	.	4F\	4B-\
=36-	=36-	=36-	=36-
.	.	4D/	2f\
.	.	4BB-/	.
.	.	2F\	2r
*custos:FF	*	*	*
!LO:LB:g=original	!	!	!
=37-	=37-	=37-	=37-
2FF/	.	2r	8r
.	.	.	8f\L
.	.	.	8f\
.	.	.	8e-X\J
*	*	*	*custos:d
!	!	!	!LO:LB:g=original
2BB-/	.	8r	8d\L
!	!	!	!LO:TX:a:t=P:problem=♭ above
.	.	8F\L	16e-X\L
.	.	.	16d\JJ
.	.	8F\	8.c\L
.	.	8E-X\J	.
!	!	!	!LO:TX:t=P:problem=kreska pseudotaktowa
.	.	.	16B-\Jk
=38-	=38-	=38-	=38-
2FF/	.	8D\L	2f\
!	!	!LO:TX:a:t=P:problem=♭ above	!
.	.	16E-X\L	.
.	.	16D\JJ	.
.	.	8.C/L	.
.	.	16BB-/Jk	.
!LO:TX:t=P:problem=kreska pseudotaktowa	!	!	!
2BB-/	.	8F\L	2r
.	.	8d\	.
.	.	8d\	.
.	.	8c\J	.
=39-	=39-	=39-	=39-
4D/	.	8B-\L	8r
.	.	16c\L	8f\L
.	.	16B-\JJ	.
4BB-/	.	8.A\L	8f\
!	!	!	!LO:TX:a:t=P:problem=♭ above
.	.	.	8e-X\J
!	!	!LO:TX:t=P:problem=kreska pseudotaktowa	!
.	.	16G\Jk	.
2BB-/	.	2F\	8d\L
!	!	!	!LO:TX:a:t=P:problem=♭ above
.	.	.	16e-X\L
.	.	.	16d\JJ
.	.	.	8.c\L
.	.	.	16B-\Jk
=40-	=40-	=40-	=40-
2FF/	.	1r	4A/
.	.	.	4c\
!LO:TX:t=P:problem=kreska pseudotaktowa	!	!	!
2FF/	.	.	4A/
!	!	!	!LO:TX:t=P:problem=kreska pseudotaktowa
.	.	.	4Fny/
=41-	=41-	=41-	=41-
2C/	.	4r	2c\
.	.	4c\	.
2FF/	.	4A\	2r
!	!	!LO:TX:t=P:problem=kreska pseudotaktowa	!
.	.	4F\	.
=42-	=42-	=42-	=42-
2C/	.	2C/	8r
.	.	.	8c\L
.	.	.	8c\
.	.	.	8B-\J
!LO:TX:t=P:problem=kreska pseudotaktowa	!	!	!
2FF/	.	2r	8A/L
.	.	.	16B-/L
.	.	.	16A/JJ
.	.	.	8.G/L
!	!	!	!LO:TX:t=P:problem=kreska pseudotaktowa
.	.	.	16F/Jk
=43-	=43-	=43-	=43-
2.FF/	.	8r	8c\L
.	.	8c\L	8A\
.	.	8c\	8A\
.	.	8B-\J	8G\J
.	.	8A\L	8F/L
.	.	16B-\L	16G/L
.	.	16A\J	16F/JJ
4GG/	.	8.G\	8.E/L
!	!	!	!LO:TX:t=P:problem=kreska pseudotaktowa
.	.	16F\Jk	16D/Jk
*	*	*	*clefF4
!	!	!LO:LB:g=original	!LO:LB:g=original
=44-	=44-	=44-	=44-
4AA/	.	4Eny\	4AA/
4BB-/	.	4F\	4FF/
4GG/	.	2E\	4GG/
4AA/	.	.	4AA/
=45-	=45-	=45-	=45-
1DD	.	1D	2DD/
*	*	*	*clefC3
.	.	.	4r
.	.	.	4d\
*	*	*clefC4	*
=46-	=46-	=46-	=46-
2.GG/	.	2r	2d\
.	.	4r	2d\
!LO:TX:t=P:problem=kreska pseudotaktowa	!	!	!
4Gny\	.	4G/	.
=47-	=47-	=47-	=47-
2G\	.	2G/	2.g\
2G\	.	2G/	.
.	.	.	4f\
*custos:c	*	*	*
!LO:LB:g=original	!	!	!
=48-	=48-	=48-	=48-
*	*	*2\right	*
2.c\	.	2.c\	4eny\
.	.	.	8g\L
.	.	.	8f\J
.	.	.	4e\
!LO:TX:t=P:problem=kreska pseudotaktowa	!	!LO:TX:t=P:problem=kreska pseudotaktowa	!LO:TX:t=P:problem=kreska pseudotaktowa
4B-y\	.	4B-\	4d\
=49-	=49-	=49-	=49-
4.A\	.	8A\L	2c/
.	.	16A\L	.
.	.	16B-\J	.
.	.	8c\	.
8G\	.	8B-\J	.
2F\	.	8A/L	2r
.	.	8G/	.
.	.	8F/	.
!	!	!LO:TX:t=P:problem=kreska pseudotaktowa	!
.	.	8E/J	.
=50-	=50-	=50-	=50-
2.F\	.	2F/	8r
.	.	.	16A/LL
.	.	.	16B-/J
.	.	.	8c/
!	!	!	!LO:SIC:s=8B-J
.	.	.	8B-/
!	!	!	!LO:SIC:s=8AL
.	.	2r	8A/
.	.	.	8G/
!LO:TX:t=P:problem=kreska pseudotaktowa	!	!	!
4D/	.	.	8F/
!	!	!	!LO:TX:t=P:problem=kreska pseudotaktowa
.	.	.	8E/J
*	*	*clefF4	*
=51-	=51-	=51-	=51-
4.D/	.	8r	2F/
.	.	16D\LL	.
.	.	16E\J	.
.	.	8F\	.
8C/	.	8E\J	.
2BB-/	.	8D/L	2r
.	.	8C/	.
.	.	8BB-/	.
!	!	!LO:TX:t=P:problem=kreska pseudotaktowa	!
.	.	8AA/J	.
=52-	=52-	=52-	=52-
4.BB-/	.	2BB-/	8r
.	.	.	16B-/LL
.	.	.	16c/J
.	.	.	8d/
!	!	!	!LO:SIC:s=8cJ
8AA/	.	.	8c/
!LO:TX:t=P:problem=kreska pseudotaktowa	!	!	!LO:SIC:s=8B-L
2GG/	.	2r	8B-/
.	.	.	8A/
.	.	.	8G/
.	.	.	8F/J
*	*	*	*custos:G
!	!	!	!LO:LB:g=original
=53-	=53-	=53-	=53-
!	!	!	!LO:TX:t=P:problem=mixed beam
4GG/	.	8r	8G/L
*	*	*	*clefF4
.	.	16B-\LL	16G\L
!	!	!	!LO:SIC:s=16AJ
.	.	16c\J	16A\JJ
!	!	!	!LO:SIC:s=8B-
4.G\	.	8d\	8B-X\L
!	!	!	!LO:SIC:s=8AJ
.	.	8c\J	8A\
!	!	!	!LO:SIC:s=8GL
.	.	8B-\L	8G\
8F\L	.	8A\	8F\
!LO:TX:t=P:problem=kreska pseudotaktowa	!	!	!
8E-X\	.	8G\	8E-X\
!	!	!	!LO:TX:t=P:problem=kreska pseudotaktowa
8D\J	.	8F\J	8D\J
!	!	!LO:LB:g=original	!
=54-	=54-	=54-	=54-
*	*	*2\left	*
2E-X\	.	2G\	2E-X\
!LO:TX:t=P:problem=kreska pseudotaktowa	!	!	!
2C/	.	4c\	2C/
.	.	4B-\	.
=55-	=55-	=55-	=55-
2.D/	.	4.A\	4D/
.	.	.	8F\L
.	.	8G\	8E-\J
.	.	8F\L	8D/L
!	!	!LO:SIC:v:s=8E-	!
.	.	8E\	8C/
4GG/	.	8D\	8BB-/
.	.	8C\J	8AA/J
=56-	=56-	=56-	=56-
4GG/	.	4BB-/	4GG/
2G\	.	2G\	2B-\
8F\L	.	8F\L	8A\L
!LO:TX:a:t=P:problem=♭ above	!	!	!
!LO:TX:t=P:problem=kreska pseudotaktowa	!	!LO:TX:a:t=P:problem=♭ above	!
8E-X\J	.	8E-X\J	8G\J
*custos:D	*	*	*
!LO:PB:g=original	!	!	!
=57-	=57-	=57-	=57-
4D/	.	4D/	4F#X\
4C/	.	4E-X\	2G\
2D/	.	2D/	.
!	!	!	!LO:TX:a:t=P:problem=# above
!	!	!	!LO:TX:t=P:problem=kreska pseudotaktowa
.	.	.	4F#X\
=58-	=58-	=58-	=58-
2.GG/	.	2GG/	2G\
.	.	4r	2r
!LO:TX:t=P:problem=kreska pseudotaktowa	!	!	!
4G\	.	4G\	.
*	*	*	*clefC4
=59-	=59-	=59-	=59-
2.G\	.	2.G\	2r
.	.	.	2d\
4A\	.	4A\	.
=60-	=60-	=60-	=60-
*	*	*2\right	*
2.B-\	.	2.B-\	2.d\
8A\L	.	8A\L	4e\
!LO:TX:t=P:problem=kreska pseudotaktowa	!	!	!
8G\J	.	8G\J	.
*	*	*	*custos:f
!	!	!	!LO:LB:g=original
=61-	=61-	=61-	=61-
4F\	.	4F\	2.f\
4Eny\	.	4Eny\	.
4D/	.	4D/	.
8C/L	.	8C/L	8e\L
8BB-/J	.	8BB-/J	8d\J
=62-	=62-	=62-	=62-
4AA/	.	4AA/	4c#X\
4GG/	.	4GG/	2d\
!LO:TX:t=P:problem=kreska pseudotaktowa	!	!	!
2AA/	.	2AA/	.
!	!	!	!LO:TX:a:t=P:problem=# above
!	!	!	!LO:TX:t=P:problem=kreska pseudotaktowa
.	.	.	4c#X\
=63-	=63-	=63-	=63-
4DD/	.	4DD/	2.d\
2D/	.	2D/	.
!	!	!LO:TX:t=P:problem=kreska pseudotaktowa	!
4E\	.	4E\	8cny\L
.	.	.	8B-\J
=64-	=64-	=64-	=64-
2.F\	.	8F\L	8A/L
.	.	8G\	8B-/
.	.	8A\	8c/
.	.	8G\J	8B-/J
.	.	8F\L	8A/L
.	.	8E\	8G/
!LO:TX:t=P:problem=kreska pseudotaktowa	!	!	!
4D/	.	8D\	8Fny/
!	!	!	!LO:TX:t=P:problem=kreska pseudotaktowa
.	.	8C\J	8Eny/J
*	*	*custos:BB	*
!	!	!LO:LB:g=original	!
=65-	=65-	=65-	=65-
2BB-/	.	8BB-/L	8D/L
.	.	8C/	8E/
.	.	8D/	8F/
!	!	!	!LO:SIC:s=8GJ
.	.	8E/J	8G/
!	!	!	!LO:SIC:s=8AL
2F\	.	8F\L	8A/
.	.	8G\	8B-/
.	.	8A\	8c/
.	.	8F\J	8A/J
*custos:G	*	*	*
!LO:LB:g=original	!	!	!
=66-	=66-	=66-	=66-
2.G\	.	8G\L	8B-\L
.	.	8A\	8c\
.	.	8B-\	8d\
.	.	8A\J	8c\J
.	.	4G\	4B-\
8F\L	.	8F\L	8A/L
!LO:TX:a:t=P:problem=♭ above	!	!LO:TX:a:t=P:problem=♭ above	!
!LO:TX:t=P:problem=kreska pseudotaktowa	!	!LO:TX:t=P:problem=kreska pseudotaktowa	!LO:TX:t=P:problem=kreska pseudotaktowa
8E-X\J	.	8E-X\J	8G/J
=67-	=67-	=67-	=67-
4D/	.	4D/	4F#X/
4C/	.	4C/	2G/
2D/	.	2D/	.
.	.	.	4F#X/
=68-	=68-	=68-	=68-
!	!	!LO:TX:t=P:problem=mixed beam	!
2GG/	.	8GG/L	1G
!	!	!LO:SIC:s=8G	!
.	.	8G\J	.
!	!	!LO:SIC:s=8D	!
.	.	8D/L	.
.	.	8BB-/J	.
!LO:TX:t=P:problem=kreska pseudotaktowa	!	!	!
2GG/	.	16GG/LL	.
.	.	16AA/	.
.	.	16BB-/	.
.	.	16C/JJ	.
.	.	16D\LL	.
.	.	16Eny\	.
.	.	16F\	.
.	.	16G\JJ	.
=69-	=69-	=69-	=69-
2AA/	.	4A\	2r
.	.	4AA/	.
2DD/	.	2D/	8r
.	.	.	8d\
.	.	.	8A/L
!	!	!	!LO:TX:t=P:problem=kreska pseudotaktowa
.	.	.	8Fny/J
!	!	!	!LO:LB:g=original
=70-	=70-	=70-	=70-
2D/	.	1r	16D/LL
.	.	.	16E/
.	.	.	16F/
!	!	!	!LO:SIC:s=16GJJ
.	.	.	16G/
!	!	!	!LO:SIC:s=16ALL
.	.	.	16A/
.	.	.	16B-/
.	.	.	16c/
.	.	.	16d/JJ
!LO:TX:t=P:problem=kreska pseudotaktowa	!	!	!
2Eny\	.	.	4e\
!	!	!	!LO:TX:t=P:problem=kreska pseudotaktowa
.	.	.	4E/
=71-	=71-	=71-	=71-
!LO:TX:a:i:t=NB. vide infra:mod=	!	!	!
2.AA/	.	8r	2A/
.	.	8A\L	.
.	.	8E\	.
!	!	!LO:TX:a:t=P:problem=# above	!
.	.	8C#X\J	.
.	.	2AA/	8r
.	.	.	8c\L
4D/	.	.	8A\
.	.	.	8F\J
*	*	*clefC4	*
*	*	*custos:d	*
!	!	!LO:LB:g=original	!
=72-	=72-	=72-	=72-
4BB-/	.	8r	2D/
.	.	8d\L	.
4GG/	.	8B-\	.
.	.	8G\J	.
4C/	.	2E/	8r
.	.	.	8e\L
!LO:TX:t=P:problem=kreska pseudotaktowa	!	!	!
4AA/	.	.	8c\
!	!	!	!LO:TX:t=P:problem=kreska pseudotaktowa
.	.	.	8A\J
=73-	=73-	=73-	=73-
4D/	.	8r	2F/
.	.	8f\L	.
4BB-/	.	8d\	.
.	.	8B-\J	.
4E-X\	.	2G/	8r
.	.	.	8g\L
!	!	!	!LO:TX:a:t=P:problem=♭ above
4C/	.	.	8e-X\
.	.	.	8c\J
*	*	*clefF4	*
=74-	=74-	=74-	=74-
4D/	.	8r	2A/
.	.	8F\L	.
4BB-/	.	8D\	.
.	.	8BB-\J	.
!	!	!LO:TX:t=P:problem=kreska pseudotaktowa	!
2GG/	.	2GG/	8r
.	.	.	8d\L
!	!	!	!LO:N:acc=#
.	.	.	8Bn\
.	.	.	8G\J
*custos:C	*	*	*
!LO:LB:g=original	!	!	!
=75-	=75-	=75-	=75-
!	!	!	!LO:TX:t=P:problem=mixed beam
4C/	.	8r	8E/L
.	.	8c\L	8eny\
4FF/	.	8A\	8c\
.	.	8F\J	8A\J
!	!	!LO:TX:t=P:problem=kreska pseudotaktowa	!LO:TX:t=P:problem=mixed beam
4DD/	.	2D/	8F/L
.	.	.	8f\
2GG/	.	.	8d\
!	!	!	!LO:TX:t=P:problem=kreska pseudotaktowa
.	.	.	8B-y\J
=76-	=76-	=76-	=76-
.	.	8r	2G/
.	.	8G\L	.
4GG/	.	8D\	.
.	.	8BB-\J	.
*	*	*	*2\right
!LO:TX:t=P:problem=kreska pseudotaktowa	!	!	!
2GG/	.	16GG/LL	2.g\
.	.	16AA/	.
.	.	16BB-/	.
.	.	16Cny/JJ	.
.	.	16D\LL	.
.	.	16E\	.
.	.	16F\	.
.	.	16G\JJ	.
=77-	=77-	=77-	=77-
*	*	*2\left	*
2AA/	.	2A\	.
.	.	.	4f\
2BB-/	.	2B-\	4f\
.	.	.	8e\L
!	!	!	!LO:TX:t=P:problem=kreska pseudotaktowa
.	.	.	8d\J
*	*	*	*custos:e
!	!	!	!LO:LB:g=original
=78-	=78-	=78-	=78-
*	*	*	*2\left
!LO:TX:t=P:problem=kreska pseudotaktowa	!	!	!
1AA	.	8A\L	2e\
.	.	16G\L	.
.	.	16F\JJ	.
.	.	16E\LL	.
.	.	16D\	.
.	.	16C\	.
.	.	16BB-\JJ	.
*	*	*custos:AA	*
!	!	!LO:LB:g=original	!
.	.	8AA/L	2e\
.	.	8GG/J	.
!	!	!LO:TX:t=P:problem=kreska pseudotaktowa	!
.	.	4AA/	.
=79-	=79-	=79-	=79-
2D/	.	4D/	1d
.	.	4d\	.
4BB-/	.	4B-\	.
!	!	!LO:TX:t=P:problem=kreska pseudotaktowa	!
4GG/	.	4G\	.
=80-	=80-	=80-	=80-
!LO:TX:t=P:problem=kreska pseudotaktowa	!	!	!
1D	.	8d\L	1r
.	.	16c\L	.
.	.	16B-\JJ	.
.	.	16A\LL	.
.	.	16G\	.
.	.	16F\	.
.	.	16E\JJ	.
.	.	8D/L	.
.	.	8C/J	.
.	.	4D/	.
=81-	=81-	=81-	=81-
2GG/	.	2GG/	4r
.	.	.	4g\
2C/	-	2r	4e-X\
!	!	!	!LO:TX:t=P:problem=kreska pseudotaktowa
.	.	.	4c\
=82-	=82-	=82-	=82-
!LO:TX:t=P:problem=kreska pseudotaktowa	!	!	!
1GG	.	1r	8g\L
.	.	.	16f\L
!	!	!	!LO:SIC:s=16e-JJ
!	!	!	!LO:TX:a:t=P:problem=♭ above
.	.	.	16e-X\
!	!	!	!LO:SIC:s=16dLL
.	.	.	16d\
.	.	.	16c\
.	.	.	16B-\
.	.	.	16A\JJ
.	.	.	8G/L
.	.	.	8F/J
!	!	!	!LO:TX:t=P:problem=kreska pseudotaktowa
.	.	.	4G/
=83-	=83-	=83-	=83-
1C	.	4r	1C
.	.	4G\	.
.	.	4E\	.
.	.	4C/	.
=84-	=84-	=84-	=84-
2GG/	.	8G\L	1r
.	.	16F\L	.
.	.	16E\JJ	.
.	.	16D/LL	.
.	.	16C/	.
.	.	16BB-/	.
.	.	16AA/JJ	.
!LO:TX:t=P:problem=kreska pseudotaktowa	!	!	!
2GG/	.	8GG/L	.
.	.	8FF/J	.
!	!	!LO:TX:t=P:problem=kreska pseudotaktowa	!
.	.	4GG/	.
=85-	=85-	=85-	=85-
2C/	.	2C/	4r
.	.	.	4c\
2FF/	.	2r	4A/
!	!	!	!LO:TX:t=P:problem=kreska pseudotaktowa
.	.	.	4F/
=86-	=86-	=86-	=86-
!LO:TX:t=P:problem=kreska pseudotaktowa	!	!	!
1C	.	1r	8c\L
.	.	.	16B-\L
.	.	.	16A\JJ
.	.	.	16G/LL
.	.	.	16F/
.	.	.	16E/
.	.	.	16D/JJ
.	.	.	8C/L
.	.	.	8BB-/J
.	.	.	4C/
*custos:FF	*	*	*
!LO:LB:g=original	!	!	!
=87-	=87-	=87-	=87-
2FF/	.	4r	1F
.	.	4c\	.
2FF/	.	4A\	.
.	.	4F\	.
=88-	=88-	=88-	=88-
!LO:TX:t=P:problem=kreska pseudotaktowa	!	!	!
1C	.	8c\L	1r
.	.	16B-\L	.
.	.	16A\JJ	.
.	.	16G\LL	.
.	.	16F\	.
.	.	16E\	.
.	.	16D\JJ	.
.	.	8C/L	.
.	.	8BB-/J	.
!	!	!LO:TX:t=P:problem=kreska pseudotaktowa	!
.	.	4C/	.
=89-	=89-	=89-	=89-
0FF	.	8F\L	8r
.	.	8A\	8c\L
.	.	8A\	8c\
.	.	8F\J	8A\J
*	*	*custos:A	*custos:F
!	!	!LO:LB:g=original	!LO:LB:g=original
.	.	8A\L	8F/L
.	.	8c\	8A/
.	.	8c\	8A/
!	!	!LO:TX:t=P:problem=kreska pseudotaktowa	!LO:TX:t=P:problem=kreska pseudotaktowa
.	.	8A\J	8F/J
=90-	=90-	=90-	=90-
.	.	8F\L	8A\L
.	.	8A\	8c\
.	.	8A\	8c\
.	.	8F\J	8A\J
.	.	8.A\L	8.c\L
!	!	!LO:SIC:s=16GJk	!
.	.	16G\L	16B-\Jk
!	!	!LO:SIC:s=16FLL	!
.	.	16F\	16A/LL
.	.	16E\	16G/
.	.	16D\	16F/
!	!	!LO:TX:t=P:problem=kreska pseudotaktowa	!LO:TX:t=P:problem=kreska pseudotaktowa
.	.	16C\JJ	16E/JJ
=91-	=91-	=91-	=91-
!LO:TX:t=P:problem=kreska pseudotaktowa	!	!LO:TX:t=P:problem=mixed beam	!LO:TX:t=P:problem=mixed beam
0GG	.	8BB-/L	8D/L
.	.	8B-\	8d\
.	.	8B-\	8d\
.	.	8G\J	8B-\J
.	.	8B-\L	8G/L
.	.	8d\	8B-/
.	.	8d\	8B-/
!	!	!LO:TX:t=P:problem=kreska pseudotaktowa	!LO:TX:t=P:problem=kreska pseudotaktowa
.	.	8B-\J	8G/J
=92-	=92-	=92-	=92-
.	.	8G\L	8B-\L
.	.	8B-\	8d\
.	.	8B-\	8d\
.	.	8G\J	8B-\J
.	.	8.B-\L	8.d\L
!	!	!LO:SIC:s=16AJk	!
.	.	16A\L	16c\Jk
!	!	!LO:SIC:s=16GLL	!
.	.	16G\	16B-\LL
.	.	16F\	16A\
.	.	16E\	16G\
!	!	!LO:TX:t=P:problem=kreska pseudotaktowa	!LO:TX:t=P:problem=kreska pseudotaktowa
.	.	16D\JJ	16F\JJ
=93-	=93-	=93-	=93-
!	!	!LO:SIC:s=8CL	!LO:TX:t=P:problem=mixed beam
0AA	.	8C/	8E/L
*	*	*clefC4	*
!	!	!LO:SIC:s=8c	!
.	.	8c\L	8eny\
.	.	8c\	8e\
.	.	8A\J	8c\J
.	.	8c\L	8A\L
.	.	8e\	8c\
.	.	8e\	8c\
!	!	!	!LO:TX:t=P:problem=kreska pseudotaktowa
.	.	8c\J	8A\J
*	*	*	*custos:c
!	!	!	!LO:LB:g=original
=94-	=94-	=94-	=94-
.	.	8A\L	8c\L
.	.	8c\	8e\
.	.	8c\	8e\
.	.	8A\J	8c\J
.	.	8.c\L	8.e\L
.	.	16B-\Jk	16d\Jk
.	.	16A/LL	16c\LL
.	.	16G/	16B-\
.	.	16F/	16A\
!	!	!	!LO:TX:t=P:problem=kreska pseudotaktowa
.	.	16E/JJ	16G\JJ
*	*	*custos:D	*
!	!	!LO:LB:g=original	!
=95-	=95-	=95-	=95-
!LO:TX:t=P:problem=kreska pseudotaktowa	!	!LO:TX:t=P:problem=mixed beam	!LO:TX:t=P:problem=mixed beam
0BB-	.	8D/L	8F/L
.	.	8d\	8f\
.	.	8d\	8f\
.	.	8B-\J	8d\J
.	.	8d\L	8B-\L
.	.	8f\	8d\
.	.	8f\	8d\
!	!	!	!LO:TX:t=P:problem=kreska pseudotaktowa
.	.	8d\J	8B-\J
=96-	=96-	=96-	=96-
.	.	8B-\L	8d\L
.	.	8d\	8f\
.	.	8d\	8f\
.	.	8B-\J	8d\J
.	.	8.d\L	8.f\L
!	!	!	!LO:TX:a:t=P:problem=♭ above
.	.	16c\Jk	16e-X\Jk
.	.	16B-/LL	16d\LL
.	.	16A/	16c\
.	.	16G/	16B-\
!	!	!LO:TX:t=P:problem=kreska pseudotaktowa	!
.	.	16F/JJ	16A\JJ
=97-	=97-	=97-	=97-
!	!	!LO:TX:t=P:problem=mixed beam	!LO:TX:t=P:problem=mixed beam
0C	.	8E/L	8G/L
.	.	8e\	8g\
.	.	8e\	8g\
.	.	8c\J	8eny\J
.	.	8e\L	8c\L
.	.	8g\	8e\
.	.	8g\	8e\
!	!	!LO:TX:t=P:problem=kreska pseudotaktowa	!LO:TX:t=P:problem=kreska pseudotaktowa
.	.	8e\J	8c\J
=98-	=98-	=98-	=98-
.	.	8c\L	8e\L
.	.	8e\	8g\
.	.	8e\	8g\
.	.	8c\J	8e\J
.	.	8.e\L	8.g\L
.	.	16d\Jk	16f\Jk
.	.	16c\LL	16e\LL
.	.	16B-\	16d\
.	.	16A\	16c\
!	!	!	!LO:TX:t=P:problem=kreska pseudotaktowa
.	.	16G\JJ	16B-\JJ
=99-	=99-	=99-	=99-
4D/	.	4F#X/	4A/
4GG/	.	2G/	4B-\
2D/	.	.	2A/
!	!	!LO:TX:a:t=P:problem=# above	!
.	.	4F#X/	.
=100-	=100-	=100-	=100-
2GG/	.	2G/	2G/
!LO:TX:t=P:problem=kreska pseudotaktowa	!	!	!
2r	.	2r	2r
*	*	*	*custos:g
*	*	*clefF4	*clefC3
!	!	!	!LO:PB:g=original
=101-	=101-	=101-	=101-
*	*	*	*2\right
2GG/	.	2GG/	2g\
4GG/	.	4GG/	4g\
4GG/	.	4GG/	4g\
=102-	=102-	=102-	=102-
*	*	*	*2\left
2.GG/	.	2.GG/	2.g\
!LO:TX:t=P:problem=kreska pseudotaktowa	!	!	!
4D/	.	4D/	4f\
*	*	*custos:C	*
!	!	!LO:LB:g=original	!
=103-	=103-	=103-	=103-
4C/	-	4C/	4e-X\
4BB-/	.	4BB-/	4d\
*	*	*2\right	*
!	!	!	!LO:TX:t=P:problem=kreska pseudotaktowa
2FF/	.	2Fny\	2c/
*custos:BB	*	*	*
!LO:LB:g=original	!	!	!
=104-	=104-	=104-	=104-
2BB-/	.	2BB-/	2B-/
!LO:TX:t=P:problem=kreska pseudotaktowa	!	!	!
2r	.	2r	2r
=105-	=105-	=105-	=105-
2BB-/	.	2BB-/	2f\
4BB-/	.	4BB-/	4f\
4BB-/	.	4BB-/	4f\
=106-	=106-	=106-	=106-
2.D/	.	2.D/	2.f\
!LO:TX:t=P:problem=kreska pseudotaktowa	!	!	!LO:TX:t=P:problem=kreska pseudotaktowa
4F\	.	4F\	4c/
=107-	=107-	=107-	=107-
4C/	.	4C/	4e-X\
4C/	.	4C/	4e-\
*	*	*2\left	*
!	!	!	!LO:TX:t=P:problem=kreska pseudotaktowa
2G\	.	2G\	2d\
=108-	=108-	=108-	=108-
2C/	.	2C/	2c/
!LO:TX:t=P:problem=kreska pseudotaktowa	!	!	!
2r	.	2r	2r
*	*	*	*custos:d
!	!	!	!LO:LB:g=original
=109-	=109-	=109-	=109-
2BB-/	.	2BB-/	2d\
4BB-/	.	4BB-/	4d\
4BB-/	.	4BB-/	4d\
=110-	=110-	=110-	=110-
2.BB-/	.	2.BB-/	2.d\
!LO:TX:t=P:problem=kreska pseudotaktowa	!	!	!
4FF/	.	4FF/	4c/
=111-	=111-	=111-	=111-
4GG/	.	4GG/	4B-/
4C/	.	4C/	4c/
2D/	.	2D/	2A/
=112-	=112-	=112-	=112-
2GG/	.	2GG/	1G
4G\	.	4G\	.
!LO:TX:t=P:problem=kreska pseudotaktowa	!	!LO:TX:t=P:problem=kreska pseudotaktowa	!
4G\	.	4G\	.
*custos:G	*	*	*
!LO:LB:g=original	!	!	!
=113-	=113-	=113-	=113-
*2\right	*	*2\right	*
2.G\	.	2.G\	1r
4F\	.	4F\	.
=114-	=114-	=114-	=114-
*	*	*	*2\right
4E-X\	.	4E-X\	2g\
4D/	.	4D/	.
1C/	.	1C/	4g\
.	.	.	4g\
=115-	=115-	=115-	=115-
*	*	*	*2\left
.	.	.	2.g\
!LO:N:acc=#	!	!LO:N:acc=#	!
2BBn/	.	2BBn/	.
.	.	.	4f\
=116-	=116-	=116-	=116-
0C	.	0C	4e-X\
.	.	.	4d\
.	.	.	1e-X\
=117-	=117-	=117-	=117-
.	.	.	.
.	.	.	4d\
.	.	.	4c/
=118-	=118-	=118-	=118-
!LO:SIC:s=1GG;	!	!LO:SIC:s=1GG;	!LO:SIC:s=1d;
1GGl;;	.	1GGl;;	1dl;;
!	!	!	!LO:TX:b:i:t=finis.:mod=
==	==	==	==
*-	*-	*-	*-
!!!system-decoration: [s1][s2]<s3>
!!LO:MO:ori
!!!RDF**kern: l = terminal long
!!LO:MO:end
!!!ENC: Filip Voros
!!!END: 2022-10-31
!!!EED: Natalia Wrzos
!!!EEV: 2022-11-09
!!!EED: Andrzej Kubiczek
!!!EST: revision finished 2022-12-02
!!!ENC-modern: Andrzej Kubiczek
!!!END-modern: 2022-12-02
!!!filter-modern: shed -k -e "s/[ny]/$1/g; s/#X/#/g; s/-X/-/g" | shed -e "s/LO:N:/LO:n:$1/L" | shed -e "s/^custos:/Xcustos:/I" | shed -e "s/^(\d+[\/\\]right)/$1yy/I; s/^(\d+[\/\\]left)/$1yy/I" | shed -e "s/TX(.*):t=P:/tx$1:t=P:/LG" | sic -sq | modori -m  | autostem -r | tie -s | shed -e "s/-//B"
